src/assets/icons/send.svg

<?xml version="1.0" encoding="UTF-8"?>
<svg width="50px" height="50px" viewBox="0 0 50 50" version="1.1" xmlns="http://www.w3.org/2000/svg" xmlns:xlink="http://www.w3.org/1999/xlink">
    <title>椭圆形</title>
    <g id="扩展程序" stroke="none" stroke-width="1" fill="none" fill-rule="evenodd">
        <g id="资产" transform="translate(-163.000000, -172.000000)" fill="#6E7585">
            <g id="编组-11" transform="translate(83.000000, 172.000000)">
                <g id="编组-7" transform="translate(80.000000, 0.000000)">
                    <circle id="椭圆形" opacity="0.049999997" cx="25" cy="25" r="25"></circle>
                    <path d="M20.003961,32 L30.003961,32 C30.5562458,32 31.003961,32.4477153 31.003961,33 C31.003961,33.5522847 30.5562458,34 30.003961,34 L20.003961,34 C19.4516763,34 19.003961,33.5522847 19.003961,33 C19.003961,32.4477153 19.4516763,32 20.003961,32 Z M25.003961,16 L25.0229791,16.0001797 L25.0229791,16.0001797 L25.0629924,16.0017331 C25.0746544,16.0024185 25.0863066,16.0033072 25.0979434,16.0043992 L25.1205822,16.0067277 L25.1205822,16.0067277 L25.1477036,16.0103239 C25.1674499,16.0131763 25.1871272,16.0166197 25.206707,16.0206542 C25.2156143,16.0223995 25.2244554,16.024347 25.2332519,16.0264107 L25.2649646,16.0344875 L25.2649646,16.0344875 L25.2958047,16.0433274 C25.302589,16.0453906 25.3093557,16.0475275 25.3161036,16.0497381 C25.3357587,16.0561225 25.3555402,16.0633157 25.3750196,16.071104 C25.3927567,16.0781964 25.4100595,16.085679 25.4271826,16.0936734 C25.4478524,16.1033766 25.468255,16.1137939 25.488238,16.1248758 C25.5003555,16.1314988 25.5125741,16.1386069 25.5246698,16.1459955 C25.529795,16.1492288 25.5349379,16.1524358 25.5400492,16.155688 L25.5923651,16.191254 C25.6027042,16.1987958 25.6129314,16.2065606 25.62304,16.2145484 C25.6249119,16.2160946 25.6271649,16.2178869 25.62941,16.2196888 L25.7110678,16.2928932 L25.7110678,16.2928932 L32.0750288,22.6568542 C32.4655531,23.0473785 32.4655531,23.6805435 32.0750288,24.0710678 C31.6845046,24.4615921 31.0513396,24.4615921 30.6608153,24.0710678 L26.003,19.414 L26.003961,29 C26.003961,29.5522847 25.5562458,30 25.003961,30 C24.4516763,30 24.003961,29.5522847 24.003961,29 L24.003,19.415 L19.3471068,24.0710678 C18.9565825,24.4615921 18.3234175,24.4615921 17.9328932,24.0710678 C17.5423689,23.6805435 17.5423689,23.0473785 17.9328932,22.6568542 L24.2968542,16.2928932 L24.378512,16.2196888 C24.3807571,16.2178869 24.3830102,16.2160946 24.3852711,16.2143117 L24.2968542,16.2928932 C24.3343303,16.2554172 24.3740408,16.2215374 24.415557,16.191254 C24.4376252,16.1752699 24.4601531,16.1602113 24.4833008,16.1460674 C24.4953479,16.1386069 24.5075666,16.1314988 24.5198989,16.1246712 C24.5396671,16.1137939 24.5600696,16.1033766 24.5808619,16.0936538 C24.5978625,16.085679 24.6151654,16.0781964 24.632625,16.0712255 C24.6523818,16.0633157 24.6721634,16.0561225 24.6922246,16.0495467 C24.6985663,16.0475275 24.705333,16.0453906 24.7121174,16.0433274 L24.7431654,16.0343478 C24.7536004,16.0315365 24.764103,16.0288898 24.7746702,16.0264107 L24.801215,16.0206542 C24.8208874,16.0166006 24.8406582,16.0131437 24.8604984,16.0102835 C24.8690955,16.0089744 24.8781989,16.0077894 24.8873399,16.0067277 L24.9096803,16.0044273 C24.9214163,16.0033224 24.933168,16.0024244 24.9449296,16.0017331 L24.9846201,16.0001833 C24.9910524,16.0000613 24.9974996,16 25.003961,16 Z" id="形状结合" fill-rule="nonzero"></path>
                </g>
            </g>
        </g>
    </g>
</svg>

<svg width="50" height="50" xmlns="http://www.w3.org/2000/svg"><g fill="#6e7585" fill-rule="evenodd"><circle opacity=".05" cx="25" cy="25" r="25"/><path d="M20.004 32h10a1 1 0 1 1 0 2h-10a1 1 0 0 1 0-2zm5-16h.019l.04.002.035.002.023.003.027.003a1.003 1.003 0 0 1 .085.016l.032.008.03.01a.997.997 0 0 1 .23.102l.015.01.052.035a1 1 0 0 1 .031.024l.006.005.082.073 6.364 6.364a1 1 0 0 1-1.414 1.414l-4.658-4.657.001 9.586a1 1 0 1 1-2 0l-.001-9.585-4.656 4.656a1 1 0 0 1-1.414-1.414l6.364-6.364.082-.073.006-.006-.088.079a1.008 1.008 0 0 1 .415-.25l.031-.009a.993.993 0 0 1 .032-.008l.026-.005a1.003 1.003 0 0 1 .086-.014l.023-.003.035-.002.04-.002h.019z" fill-rule="nonzero"/></g></svg>
